build/images/content/icons/hours24.svg

<svg width="50" height="50" viewBox="0 0 50 50" fill="none" xmlns="http://www.w3.org/2000/svg">
<g clip-path="url(#clip0)">
<path d="M48.8663 17.5358C48.6252 16.7633 47.8031 16.3334 47.0314 16.5745C46.933 16.605 46.8407 16.6451 46.7545 16.6931C46.1609 17.0238 45.8595 17.7353 46.0701 18.4093C46.7339 20.5341 47.0703 22.7516 47.0703 25C47.0703 37.1696 37.1696 47.0703 25 47.0703C12.8304 47.0703 2.92969 37.1696 2.92969 25C2.92969 12.8304 12.8304 2.92969 25 2.92969C30.669 2.92969 36.0832 5.10788 40.1646 8.96683L37.0239 8.18405C36.2389 7.98874 35.4439 8.46634 35.2482 9.2514C35.0525 10.0365 35.5301 10.8311 36.3152 11.0268L44.7544 13.1302C44.7586 13.1313 44.7632 13.1321 44.7674 13.1332C44.8807 13.1603 44.9951 13.1737 45.1088 13.1737C45.4967 13.1737 45.8748 13.0196 46.1533 12.7361C46.5172 12.3661 46.6579 11.8317 46.524 11.3308L44.2822 2.94342C44.0731 2.16179 43.2701 1.69792 42.4889 1.90659C41.7072 2.11563 41.243 2.91824 41.452 3.69987L42.3298 6.98395C37.69 2.5219 31.4926 0 25 0C18.3224 0 12.0441 2.60048 7.32231 7.32231C2.60048 12.0441 0 18.322 0 25C0 31.6776 2.60048 37.9559 7.32231 42.6777C12.0441 47.3995 18.3224 50 25 50C31.6776 50 37.9559 47.3995 42.6777 42.6777C47.3995 37.9559 50 31.678 50 25C50 22.4548 49.6185 19.9436 48.8663 17.5358Z" fill="#63A60E"/>
<path d="M28.3367 26.1925L28.2139 26.1921V18.7317C28.2139 18.0988 27.8076 17.5373 27.2064 17.3397C26.6048 17.1425 25.9449 17.3535 25.5695 17.8635L19.0121 26.7731C18.6848 27.2175 18.6352 27.8084 18.8839 28.3009C19.1322 28.7937 19.6369 29.105 20.1889 29.1062L25.2842 29.1161V31.3568C25.2842 32.1659 25.9403 32.8217 26.749 32.8217C27.5581 32.8217 28.2139 32.1659 28.2139 31.3568V29.1218H28.331H28.334C29.1416 29.1218 29.797 28.468 29.7989 27.66C29.8004 26.8509 29.1458 26.194 28.3367 26.1925ZM23.0846 26.1822L25.2842 23.193V26.1864L23.0846 26.1822Z" fill="#63A60E"/>
<path d="M17.5968 29.8771H13.2591C13.9473 29.0779 14.7552 28.2944 15.509 27.5631C17.4152 25.7141 19.0617 24.1177 19.0617 22.2618C19.0617 19.4744 16.7931 17.207 14.0045 17.207C11.9678 17.207 10.1402 18.4189 9.34868 20.295C9.03434 21.0404 9.38377 21.8994 10.1292 22.2138C10.8742 22.5289 11.7336 22.179 12.048 21.4337C12.3802 20.6455 13.1485 20.1367 14.0045 20.1367C15.1775 20.1367 16.1316 21.09 16.1316 22.2618C16.1316 22.2935 16.1144 22.5937 15.517 23.3345C15.0013 23.9742 14.257 24.696 13.4693 25.4601C11.8801 27.0016 10.0792 28.7483 9.18922 30.7461C8.98704 31.1993 9.02824 31.7238 9.2987 32.1396C9.56878 32.5558 10.0311 32.8068 10.527 32.8068H17.5964C18.4055 32.8068 19.0613 32.151 19.0613 31.3419C19.0613 30.5332 18.4059 29.8771 17.5968 29.8771Z" fill="#63A60E"/>
<path d="M36.6352 22.2691C36.145 22.2691 35.6739 22.3606 35.2344 22.5273V18.6226C35.2344 17.8135 34.5787 17.1577 33.7696 17.1577C32.9605 17.1577 32.3047 17.8135 32.3047 18.6226V31.3774C32.3047 32.1865 32.9605 32.8423 33.7696 32.8423C34.5787 32.8423 35.2344 32.1865 35.2344 31.3774V27.2755C35.2527 27.1828 35.263 27.087 35.263 26.989C35.263 26.0185 35.8913 25.1987 36.6352 25.1987C37.3794 25.1987 38.0077 26.0185 38.0077 26.989V31.3774C38.0077 32.1865 38.6635 32.8423 39.4726 32.8423C40.2817 32.8423 40.9374 32.1865 40.9374 31.3774V26.989C40.9374 24.3866 39.0076 22.2691 36.6352 22.2691Z" fill="#63A60E"/>
</g>
<defs>
<clipPath id="clip0">
<rect width="50" height="50" fill="white"/>
</clipPath>
</defs>
</svg>

<svg width="50" height="50" fill="none" xmlns="http://www.w3.org/2000/svg"><g clip-path="url(#clip0)" fill="#63A60E"><path d="M48.866 17.536a1.465 1.465 0 00-2.796.873c.664 2.125 1 4.343 1 6.591 0 12.17-9.9 22.07-22.07 22.07S2.93 37.17 2.93 25 12.83 2.93 25 2.93a22.065 22.065 0 0115.165 6.037l-3.141-.783a1.465 1.465 0 00-.709 2.843l8.44 2.103.012.003a1.466 1.466 0 001.386-.397c.364-.37.505-.904.371-1.405l-2.242-8.388a1.465 1.465 0 00-2.83.757l.878 3.284A24.992 24.992 0 0025 0C18.322 0 12.044 2.6 7.322 7.322 2.6 12.044 0 18.322 0 25c0 6.678 2.6 12.956 7.322 17.678A24.837 24.837 0 0025 50c6.678 0 12.956-2.6 17.678-7.322C47.4 37.956 50 31.678 50 25a25.01 25.01 0 00-1.134-7.464z"/><path d="M28.337 26.192h-.123v-7.46a1.465 1.465 0 00-2.644-.869l-6.558 8.91a1.464 1.464 0 001.177 2.333l5.095.01v2.24a1.465 1.465 0 002.93 0v-2.234h.12a1.465 1.465 0 00.003-2.93zm-5.252-.01l2.2-2.989v2.993l-2.2-.004z"/><path d="M17.597 29.877h-4.338c.688-.8 1.496-1.583 2.25-2.314 1.906-1.849 3.553-3.445 3.553-5.301a5.062 5.062 0 00-5.058-5.055 5.043 5.043 0 00-4.655 3.088 1.465 1.465 0 002.699 1.139 2.118 2.118 0 011.957-1.297c1.172 0 2.127.953 2.127 2.125 0 .032-.018.332-.615 1.072-.516.64-1.26 1.362-2.048 2.126-1.589 1.542-3.39 3.288-4.28 5.286a1.463 1.463 0 001.338 2.06h7.07a1.465 1.465 0 000-2.929zm19.038-7.607c-.49 0-.961.09-1.4.257v-3.904a1.465 1.465 0 10-2.93 0v12.754a1.465 1.465 0 102.93 0v-4.101a1.51 1.51 0 00.028-.287c0-.97.628-1.79 1.372-1.79.744 0 1.373.82 1.373 1.79v4.388a1.465 1.465 0 102.93 0V26.99c0-2.602-1.93-4.72-4.303-4.72z"/></g><defs><clipPath id="clip0"><path fill="#fff" d="M0 0h50v50H0z"/></clipPath></defs></svg>
